!!!OTL: 117. Die Sproede.
!!!COM: Himmel
!!!ODT: 1811
!!!ARE: Europa, Mitteleuropa, Deutschland
!!!SCT: B0117
!!!TXL: @@DE
!!!YEM: Copyright 1995, estate of Helmut Schaffrath.
**kern	**text
*ICvox	*
*Ivox	*
*M4/4	*
*met(c)	*
*clefG2	*
*k[b-e-]	*
*B-:	*
!LO:TX:a:t=Anmuthig.	!
{8f	An
8f	dem
=1	=1
4b-	ſchönſten(rein-ſten)
4.dd	.
8ddL	Frühlings-
8ccJ	.
8b-	.
=2	=2
8aL	-mor-
8ccJ	.
4ee-	-gen
4r}	.
{8dd	ging
8cc	die
=3	=3
4.b-	Schä-
8b-	-ſer-
8ccL	-in
8b-J	.
8ccL	und
8ddJ	.
=4	=4
2b-	ſang,
4r}	.
{8b-	jung
8a	und
=5	=5
4.g	ſchön
8g	und
(4f	oh-
8g)	.
8a	-ne
=6	=6
8ccL	Sor-
8b-J	.
4b-	-gen,
4r}	.
{8b-	daß
8a	es
=7	=7
4.g	durch
8g	die
(4f	Wäl-
8g)	.
8a	-der
=8	=8
2b-	klang.
4r}	.
{4b-	So
=9	=9
4a	la
2cc	la,
8b-	la
8a	la
=10	=10
4b-	la
2dd}	la,
{8cc	la
8b-	la
=11	=11
8a	la
8b-	la
8cc	la
8dd	la
8ee-	la
8cc	la
8b-	la
8a	la
=12	=12
2b-	la!
4r}	.
==	==
!!!AGN: Ballade, Romanze
!!!GTL: Balladen und Romanzen
!!!ONB: ESAC (Essen Associative Code) Database: BOEHME
!!!AMT: simple quadruple
!!!AIN: vox
!!!EED: Helmut Schaffrath
!!!EEV: 1.0
!!@@COMMENT:"Gedicht von Goethe, 1791. Dieſes Lied und das ʒweite "Die Bekehrte" (Bei dem Glanʒ
!!der Abendröthel hat Goethe in Cimaroſa's Oper die theatraliſchen Abenteuer (Limpresario in
!!angustie) 1791 eingelegt und wurden beide als eine Aria (wie hier) gedruckt 1797 in Schmieder's
!!Journal für Theater und andere ſchöne Künſte. Das Lied wurde nach einer Melodie von Cimaroſa
!!ʒuerſt geſungen, bis Himmel's beſſere Weiſe 1811 entſtand."
!!@@END:
!!Text: J. W. v. Goethe
!!!URL-scan: https://archive.org/details/BoehmeVtLieder1895/page/n123/mode/2up
!!!ENC: Anna Maria Matuszewska
!!!EEV: 2024/18/06
*-	*-
